src/icons/outline/users/profile.svg

<svg width="24" height="24" viewBox="0 0 24 24" fill="none" xmlns="http://www.w3.org/2000/svg">
<g clip-path="url(#clip0_4787_847)">
<path fill-rule="evenodd" clip-rule="evenodd" d="M9.20703 5.75781C11.1317 5.75781 12.7079 7.34202 12.708 9.27734C12.708 10.5912 11.9816 11.7432 10.9131 12.3477C13.1007 13.0692 14.6825 15.1405 14.6826 17.5801C14.6826 17.9912 14.3435 18.332 13.9346 18.332H4.48047C4.07158 18.332 3.73242 17.9912 3.73242 17.5801C3.73252 15.1415 5.3129 13.071 7.49902 12.3486C6.42941 11.7444 5.70703 10.5918 5.70703 9.27734C5.7071 7.34218 7.28253 5.75806 9.20703 5.75781ZM9.19727 13.5791C7.25271 13.5792 5.64712 14.9831 5.28809 16.8281H13.1064C12.7573 14.9831 11.1419 13.5791 9.19727 13.5791ZM9.20703 7.25195C8.10026 7.2522 7.20312 8.15464 7.20312 9.26758C7.2032 10.3805 8.1003 11.283 9.20703 11.2832C10.314 11.2832 11.2118 10.3806 11.2119 9.26758C11.2119 8.15449 10.314 7.25195 9.20703 7.25195Z" fill="#3C3B44"/>
<path d="M19.5195 11.2422C19.9283 11.2424 20.2676 11.5841 20.2676 11.9951C20.2674 12.406 19.9281 12.7469 19.5195 12.7471H15.4404C15.0317 12.7471 14.6926 12.4061 14.6924 11.9951C14.6924 11.584 15.0315 11.2422 15.4404 11.2422H19.5195Z" fill="#3C3B44"/>
<path d="M19.5391 8.49512C19.9479 8.49512 20.287 8.83604 20.2871 9.24707C20.2871 9.65821 19.9479 9.99902 19.5391 9.99902H15.4404C15.0315 9.99902 14.6924 9.65821 14.6924 9.24707C14.6925 8.83604 15.0316 8.49512 15.4404 8.49512H19.5391Z" fill="#3C3B44"/>
<path fill-rule="evenodd" clip-rule="evenodd" d="M20.8857 3C22.0526 3 23 3.95272 23 5.12598V18.874C23 20.0473 22.0526 21 20.8857 21H3.11426C1.94744 21 1 20.0473 1 18.874V5.12598C1 3.95272 1.94744 3 3.11426 3H20.8857ZM3.11426 4.50391C2.77518 4.50391 2.49609 4.78503 2.49609 5.12598V18.874C2.49609 19.215 2.77518 19.4961 3.11426 19.4961H20.8857C21.2248 19.4961 21.5039 19.215 21.5039 18.874V5.12598C21.5039 4.78503 21.2248 4.50391 20.8857 4.50391H3.11426Z" fill="#3C3B44"/>
</g>
<defs>
<clipPath id="clip0_4787_847">
<rect width="24" height="24" fill="white"/>
</clipPath>
</defs>
</svg>

<svg xmlns="http://www.w3.org/2000/svg" width="24" height="24" fill="none" viewBox="0 0 24 24"><g fill="currentColor" clip-path="url(#a)"><path fill-rule="evenodd" d="M9.207 5.758c1.925 0 3.5 1.584 3.501 3.52a3.53 3.53 0 0 1-1.795 3.07 5.51 5.51 0 0 1 3.77 5.232c0 .411-.34.752-.748.752H4.48a.755.755 0 0 1-.748-.752 5.51 5.51 0 0 1 3.767-5.231 3.53 3.53 0 0 1-1.792-3.072c0-1.935 1.576-3.519 3.5-3.52m-.01 7.821c-1.944 0-3.55 1.404-3.909 3.25h7.818c-.349-1.846-1.964-3.25-3.909-3.25m.01-6.327a2.01 2.01 0 0 0-2.004 2.016 2.01 2.01 0 0 0 2.004 2.015 2.01 2.01 0 0 0 2.005-2.015 2.01 2.01 0 0 0-2.005-2.016" clip-rule="evenodd"/><path d="M19.52 11.242c.408 0 .748.342.748.753s-.34.752-.748.752h-4.08a.756.756 0 0 1-.748-.752c0-.411.34-.753.748-.753zm.02-2.747c.408 0 .747.341.747.752s-.34.752-.748.752H15.44a.755.755 0 0 1-.748-.752c0-.411.34-.752.748-.752z"/><path fill-rule="evenodd" d="M20.886 3C22.053 3 23 3.953 23 5.126v13.748A2.12 2.12 0 0 1 20.886 21H3.114A2.12 2.12 0 0 1 1 18.874V5.126C1 3.953 1.947 3 3.114 3zM3.114 4.504a.623.623 0 0 0-.618.622v13.748c0 .341.28.622.618.622h17.772a.623.623 0 0 0 .618-.622V5.126a.623.623 0 0 0-.618-.622z" clip-rule="evenodd"/></g><defs><clipPath id="a"><path fill="currentColor" d="M0 0h24v24H0z"/></clipPath></defs></svg>
